ExpEYES17/UserManual/fr/rst/exp/schematics/RLCtransient.svg

<?xml version="1.0" encoding="UTF-8" standalone="no"?>
<svg
   xmlns:dc="http://purl.org/dc/elements/1.1/"
   xmlns:cc="http://creativecommons.org/ns#"
   xmlns:rdf="http://www.w3.org/1999/02/22-rdf-syntax-ns#"
   xmlns:svg="http://www.w3.org/2000/svg"
   xmlns="http://www.w3.org/2000/svg"
   xmlns:sodipodi="http://sodipodi.sourceforge.net/DTD/sodipodi-0.dtd"
   xmlns:inkscape="http://www.inkscape.org/namespaces/inkscape"
   version="1.1"
   id="RLCtransient"
   width="100%"
   height="100%"
   viewBox="-6 -6 550 310"
   sodipodi:docname="RLCtransient.svg"
   inkscape:export-filename="/home/georgesk/developpement/expeyes/expeyes/ExpEYES17/UserManual/fr/rst/exp/schematics/RLCtransient.png"
   inkscape:export-xdpi="52.747253"
   inkscape:export-ydpi="52.747253"
   inkscape:version="0.92.2 (5c3e80d, 2017-08-06)">
  <metadata
     id="metadata93">
    <rdf:RDF>
      <cc:Work
         rdf:about="">
        <dc:format>image/svg+xml</dc:format>
        <dc:type
           rdf:resource="http://purl.org/dc/dcmitype/StillImage" />
        <dc:title></dc:title>
      </cc:Work>
    </rdf:RDF>
  </metadata>
  <defs
     id="defs91" />
  <sodipodi:namedview
     pagecolor="#ffffff"
     bordercolor="#666666"
     borderopacity="1"
     objecttolerance="10"
     gridtolerance="10"
     guidetolerance="10"
     inkscape:pageopacity="0"
     inkscape:pageshadow="2"
     inkscape:window-width="1668"
     inkscape:window-height="1013"
     id="namedview89"
     showgrid="false"
     inkscape:zoom="1.9527273"
     inkscape:cx="275"
     inkscape:cy="155"
     inkscape:window-x="0"
     inkscape:window-y="0"
     inkscape:window-maximized="1"
     inkscape:current-layer="RLCtransient" />
  <desc
     id="desc2">
XCircuit Version 3.7
File &quot;RLCtransient.ps&quot; Page 1
</desc>
  <path
     style="fill:none;stroke:#000000;stroke-width:2;stroke-linecap:round;stroke-linejoin:bevel"
     inkscape:connector-curvature="0"
     id="path4"
     d="m 32,224 v 48 h 96 v -48 z" />
  <text
     font-size="40"
     id="text8"
     style="font-size:40px;font-family:Helvetica;fill:#000000;stroke:none"
     x="128"
     y="80">
    <tspan
       x="128"
       y="80"
       id="tspan6">L</tspan>
  </text>
  <text
     font-size="40"
     id="text14"
     style="font-size:40px;font-family:Helvetica;fill:#000000;stroke:none"
     x="320"
     y="64">
    <tspan
       x="320"
       y="64"
       id="tspan12">C</tspan>
  </text>
  <circle
     style="fill:none;stroke:#000000;stroke-width:2;stroke-linecap:round;stroke-linejoin:bevel"
     r="16"
     id="ellipse18"
     cy="112"
     cx="240" />
  <path
     style="fill:none;stroke:#000000;stroke-width:2;stroke-linecap:round;stroke-linejoin:bevel"
     inkscape:connector-curvature="0"
     id="path20"
     d="m 256,112 h 58" />
  <path
     style="fill:none;stroke:#000000;stroke-width:2;stroke-linecap:round;stroke-linejoin:bevel"
     inkscape:connector-curvature="0"
     id="path22"
     d="M 384,112 H 326" />
  <path
     style="fill:none;stroke:#000000;stroke-width:2;stroke-linecap:round;stroke-linejoin:bevel"
     inkscape:connector-curvature="0"
     id="path24"
     d="m 326,80 v 64" />
  <path
     style="fill:none;stroke:#000000;stroke-width:2;stroke-linecap:round;stroke-linejoin:bevel"
     inkscape:connector-curvature="0"
     id="path26"
     d="m 314,80 v 64" />
  <path
     style="fill:none;stroke:#000000;stroke-width:2;stroke-linecap:round;stroke-linejoin:bevel"
     inkscape:connector-curvature="0"
     id="path28"
     d="m 208,224 v 48 h 64 v -48 z" />
  <path
     style="fill:none;stroke:#000000;stroke-width:2;stroke-linecap:round;stroke-linejoin:bevel"
     inkscape:connector-curvature="0"
     id="path30"
     d="m 384,224 v 48 h 96 v -48 z" />
  <path
     style="fill:none;stroke:#000000;stroke-width:2;stroke-linecap:round;stroke-linejoin:bevel"
     inkscape:connector-curvature="0"
     id="path32"
     d="M 0,0 V 304 H 544 V 0 Z" />
  <circle
     style="fill:none;stroke:#000000;stroke-width:2;stroke-linecap:round;stroke-linejoin:bevel"
     r="16"
     id="ellipse34"
     cy="112"
     cx="400" />
  <circle
     style="fill:none;stroke:#000000;stroke-width:2;stroke-linecap:round;stroke-linejoin:bevel"
     r="16"
     id="ellipse36"
     cy="112"
     cx="80" />
  <path
     style="fill:none;stroke:#000000;stroke-width:2;stroke-linecap:round;stroke-linejoin:bevel"
     inkscape:connector-curvature="0"
     id="path38"
     d="m 240,128 c 1,0 -48,64 0,96" />
  <path
     style="fill:none;stroke:#000000;stroke-width:2;stroke-linecap:round;stroke-linejoin:bevel"
     inkscape:connector-curvature="0"
     id="path40"
     d="m 80,128 c 1,0 16,32 0,96" />
  <path
     style="fill:none;stroke:#000000;stroke-width:2;stroke-linecap:round;stroke-linejoin:bevel"
     inkscape:connector-curvature="0"
     id="path42"
     d="m 400,128 c 1,0 0,48 48,96" />
  <path
     style="fill:none;stroke:#000000;stroke-width:2;stroke-linecap:round;stroke-linejoin:bevel"
     inkscape:connector-curvature="0"
     id="path44"
     d="m 178,112 c 4,-20 20,-20 24,0" />
  <path
     style="fill:none;stroke:#000000;stroke-width:2;stroke-linecap:round;stroke-linejoin:bevel"
     inkscape:connector-curvature="0"
     id="path46"
     d="m 178,112 c -4,20 8,20 4,0" />
  <path
     style="fill:none;stroke:#000000;stroke-width:2;stroke-linecap:round;stroke-linejoin:bevel"
     inkscape:connector-curvature="0"
     id="path48"
     d="m 118,112 c 4,-20 20,-20 24,0" />
  <path
     style="fill:none;stroke:#000000;stroke-width:2;stroke-linecap:round;stroke-linejoin:bevel"
     inkscape:connector-curvature="0"
     id="path50"
     d="m 138,112 c 4,-20 20,-20 24,0" />
  <path
     style="fill:none;stroke:#000000;stroke-width:2;stroke-linecap:round;stroke-linejoin:bevel"
     inkscape:connector-curvature="0"
     id="path52"
     d="m 158,112 c 4,-20 20,-20 24,0" />
  <path
     style="fill:none;stroke:#000000;stroke-width:2;stroke-linecap:round;stroke-linejoin:bevel"
     inkscape:connector-curvature="0"
     id="path54"
     d="m 138,112 c -4,20 8,20 4,0" />
  <path
     style="fill:none;stroke:#000000;stroke-width:2;stroke-linecap:round;stroke-linejoin:bevel"
     inkscape:connector-curvature="0"
     id="path56"
     d="m 158,112 c -4,20 8,20 4,0" />
  <path
     style="fill:none;stroke:#000000;stroke-width:2;stroke-linecap:round;stroke-linejoin:bevel"
     inkscape:connector-curvature="0"
     id="path58"
     d="m 202,112 h 22" />
  <path
     style="fill:none;stroke:#000000;stroke-width:2;stroke-linecap:round;stroke-linejoin:bevel"
     inkscape:connector-curvature="0"
     id="path60"
     d="M 118,112 H 96" />
  <text
     font-size="40"
     id="text64"
     style="font-size:40px;font-family:Helvetica;fill:#000000;stroke:none"
     x="42.299999"
     y="262.57999">
    <tspan
       x="42.299999"
       y="262.57999"
       id="tspan62">OD1</tspan>
  </text>
  <text
     font-size="40"
     id="text70"
     style="font-size:40px;font-family:Helvetica;fill:#000000;stroke:none"
     x="208"
     y="240">
    <tspan
       x="208"
       y="240"
       id="tspan68" />
  </text>
  <text
     font-size="40"
     id="text76"
     style="font-size:40px;font-family:Helvetica;fill:#000000;stroke:none"
     x="219.36063"
     y="262.57999">
    <tspan
       x="219.36063"
       y="262.57999"
       id="tspan74">A1</tspan>
  </text>
  <text
     font-size="40"
     id="text82"
     style="font-size:40px;font-family:Helvetica;fill:#000000;stroke:none"
     x="387.78"
     y="262.57999">
    <tspan
       x="387.78"
       y="262.57999"
       id="tspan80">GND</tspan>
  </text>
</svg>

<svg xmlns="http://www.w3.org/2000/svg"
   xmlns:xlink="http://www.w3.org/1999/xlink"
   version="1.1"
   id="RLCtransient" width="100%" height="100%"  viewBox="-6 -6 550 310">
<desc>
XCircuit Version 3.7
File "RLCtransient.ps" Page 1
</desc>
<g stroke="black">
<path d="M32,224 L32,272 128,272 128,224 z" fill="none" stroke-width="2" stroke-linejoin="bevel" stroke-linecap="round" stroke="#000000" />
<g transform="matrix(   1    0   -0    1 128  80)" fill="#000000" >
<text stroke="none" font-family="Helvetica" font-size="40" ><tspan x="0" y="0">L</tspan>
</text></g>
<g transform="matrix(   1    0   -0    1 320  64)" fill="#000000" >
<text stroke="none" font-family="Helvetica" font-size="40" ><tspan x="0" y="0">C</tspan>
</text></g>
<ellipse cx="240" cy="112" rx="16" ry="16" fill="none" stroke-width="2" stroke-linejoin="bevel" stroke-linecap="round" stroke="#000000" />
<path d="M256,112 L314,112 " fill="none" stroke-width="2" stroke-linejoin="bevel" stroke-linecap="round" stroke="#000000" />
<path d="M384,112 L326,112 " fill="none" stroke-width="2" stroke-linejoin="bevel" stroke-linecap="round" stroke="#000000" />
<path d="M326,80 L326,144 " fill="none" stroke-width="2" stroke-linejoin="bevel" stroke-linecap="round" stroke="#000000" />
<path d="M314,80 L314,144 " fill="none" stroke-width="2" stroke-linejoin="bevel" stroke-linecap="round" stroke="#000000" />
<path d="M208,224 L208,272 272,272 272,224 z" fill="none" stroke-width="2" stroke-linejoin="bevel" stroke-linecap="round" stroke="#000000" />
<path d="M384,224 L384,272 480,272 480,224 z" fill="none" stroke-width="2" stroke-linejoin="bevel" stroke-linecap="round" stroke="#000000" />
<path d="M0,0 L0,304 544,304 544,0 z" fill="none" stroke-width="2" stroke-linejoin="bevel" stroke-linecap="round" stroke="#000000" />
<ellipse cx="400" cy="112" rx="16" ry="16" fill="none" stroke-width="2" stroke-linejoin="bevel" stroke-linecap="round" stroke="#000000" />
<ellipse cx="80" cy="112" rx="16" ry="16" fill="none" stroke-width="2" stroke-linejoin="bevel" stroke-linecap="round" stroke="#000000" />
<path d="M240,128 C241,128 192,192 240,224 " fill="none" stroke-width="2" stroke-linejoin="bevel" stroke-linecap="round" stroke="#000000" />
<path d="M80,128 C81,128 96,160 80,224 " fill="none" stroke-width="2" stroke-linejoin="bevel" stroke-linecap="round" stroke="#000000" />
<path d="M400,128 C401,128 400,176 448,224 " fill="none" stroke-width="2" stroke-linejoin="bevel" stroke-linecap="round" stroke="#000000" />
<path d="M178,112 C182,92 198,92 202,112 " fill="none" stroke-width="2" stroke-linejoin="bevel" stroke-linecap="round" stroke="#000000" />
<path d="M178,112 C174,132 186,132 182,112 " fill="none" stroke-width="2" stroke-linejoin="bevel" stroke-linecap="round" stroke="#000000" />
<path d="M118,112 C122,92 138,92 142,112 " fill="none" stroke-width="2" stroke-linejoin="bevel" stroke-linecap="round" stroke="#000000" />
<path d="M138,112 C142,92 158,92 162,112 " fill="none" stroke-width="2" stroke-linejoin="bevel" stroke-linecap="round" stroke="#000000" />
<path d="M158,112 C162,92 178,92 182,112 " fill="none" stroke-width="2" stroke-linejoin="bevel" stroke-linecap="round" stroke="#000000" />
<path d="M138,112 C134,132 146,132 142,112 " fill="none" stroke-width="2" stroke-linejoin="bevel" stroke-linecap="round" stroke="#000000" />
<path d="M158,112 C154,132 166,132 162,112 " fill="none" stroke-width="2" stroke-linejoin="bevel" stroke-linecap="round" stroke="#000000" />
<path d="M202,112 L224,112 " fill="none" stroke-width="2" stroke-linejoin="bevel" stroke-linecap="round" stroke="#000000" />
<path d="M118,112 L96,112 " fill="none" stroke-width="2" stroke-linejoin="bevel" stroke-linecap="round" stroke="#000000" />
<g transform="matrix(   1    0   -0    1  32 256)" fill="#000000" >
<text stroke="none" font-family="Helvetica" font-size="40" ><tspan x="0" y="0">OD1</tspan>
</text></g>
<g transform="matrix(   1    0   -0    1 208 240)" fill="#000000" >
<text stroke="none" font-family="Helvetica" font-size="40" ><tspan x="0" y="0"></tspan>
</text></g>
<g transform="matrix(   1    0   -0    1 208 256)" fill="#000000" >
<text stroke="none" font-family="Helvetica" font-size="40" ><tspan x="0" y="0">A1</tspan>
</text></g>
<g transform="matrix(   1    0   -0    1 384 256)" fill="#000000" >
<text stroke="none" font-family="Helvetica" font-size="40" ><tspan x="0" y="0">GND</tspan>
</text></g>
</g>
</svg>
